src/components/content/Icon/functional/success-stories.svg

<svg width="100" height="100" viewBox="0 0 100 100" fill="none" xmlns="http://www.w3.org/2000/svg">
<path d="M67.0418 23.168C66.5818 22.862 65.9618 22.984 65.6538 23.444L52.7478 42.772L39.8418 23.444C39.5358 22.984 38.9138 22.862 38.4538 23.168C38.3446 23.2408 38.2508 23.3344 38.1779 23.4435C38.1049 23.5526 38.0541 23.675 38.0285 23.8038C38.0029 23.9325 38.0029 24.065 38.0285 24.1937C38.0541 24.3224 38.1048 24.4448 38.1778 24.554L51.0418 43.818C50.4578 43.798 49.8758 43.814 49.3018 43.87C46.6718 44.032 44.1258 44.838 41.9018 46.166C41.8878 46.14 41.8778 46.114 41.8618 46.09L26.7378 23.444C26.4318 22.984 25.8098 22.862 25.3498 23.168C25.2406 23.2408 25.1468 23.3344 25.0739 23.4435C25.0009 23.5526 24.9501 23.675 24.9245 23.8038C24.8989 23.9325 24.8989 24.065 24.9245 24.1937C24.9501 24.3224 25.0008 24.4448 25.0738 24.554L40.1978 47.2C40.2178 47.23 40.2418 47.26 40.2638 47.286C39.4958 47.884 38.7798 48.546 38.1358 49.278C33.7458 54.246 32.8458 61.064 35.7878 67.074C38.5778 72.774 44.0418 76.198 50.2198 76.198C50.5738 76.198 50.9318 76.186 51.2898 76.164C57.7878 75.868 63.2278 71.8 65.4918 65.54C67.7817 59.206 66.1258 52.47 61.1698 47.962C59.1978 46.168 56.7238 44.886 54.1598 44.254L67.3158 24.552C67.6217 24.092 67.4998 23.472 67.0398 23.166L67.0418 23.168ZM63.6138 64.86C61.6298 70.35 56.8658 73.916 51.1858 74.168H51.1658C45.3778 74.536 40.1738 71.48 37.5858 66.196C35.0078 60.928 35.7938 54.954 39.6358 50.604C42.0938 47.822 45.6698 46.096 49.4438 45.866C49.4558 45.866 49.4698 45.866 49.4818 45.862C49.8358 45.828 50.1958 45.81 50.5598 45.81C53.7998 45.81 57.3338 47.174 59.8258 49.442C64.1718 53.394 65.6218 59.302 63.6138 64.86Z" fill="#0B301A"/>
<path d="M48.0938 49.722C45.7518 50.224 43.6318 51.522 42.1258 53.38C41.9588 53.5858 41.8804 53.8495 41.9078 54.1132C41.9351 54.3768 42.0661 54.6188 42.2718 54.786C42.4776 54.9529 42.7413 55.0313 43.005 55.004C43.2686 54.9766 43.5106 54.8457 43.6778 54.64C44.9158 53.114 46.5858 52.09 48.5118 51.68C53.1058 50.696 57.6438 53.634 58.6258 58.226C59.1018 60.45 58.6818 62.728 57.4458 64.636C56.2078 66.546 54.3018 67.86 52.0758 68.336C49.8498 68.812 47.5718 68.394 45.6618 67.158C43.7518 65.922 42.4378 64.016 41.9618 61.792C41.7338 60.726 41.7098 59.648 41.8918 58.584C41.9358 58.3225 41.8745 58.0543 41.7212 57.838C41.5678 57.6217 41.335 57.475 41.0738 57.43C40.9443 57.4079 40.8117 57.4115 40.6836 57.4407C40.5555 57.4698 40.4345 57.5239 40.3273 57.5999C40.2201 57.6758 40.129 57.7722 40.0591 57.8834C39.9891 57.9946 39.9418 58.1185 39.9198 58.248C39.6958 59.562 39.7258 60.896 40.0058 62.21C40.5938 64.956 42.2158 67.31 44.5758 68.838C46.2998 69.954 48.2658 70.53 50.2718 70.53C51.0098 70.53 51.7558 70.452 52.4938 70.294C55.2418 69.706 57.5958 68.084 59.1238 65.726C60.6518 63.368 61.1698 60.556 60.5818 57.81C59.3698 52.14 53.7658 48.514 48.0938 49.726V49.722Z" fill="#0B301A"/>
</svg>

<svg xmlns="http://www.w3.org/2000/svg" width="100" height="100" fill="none" viewBox="0 0 100 100"><path fill="#0b301a" d="M67.042 23.168a1 1 0 0 0-1.388.276L52.748 42.772 39.842 23.444a1 1 0 0 0-1.664 1.11l12.864 19.264a13 13 0 0 0-1.74.052c-2.63.162-5.176.968-7.4 2.296-.014-.026-.024-.052-.04-.076L26.738 23.444a1 1 0 0 0-1.664 1.11L40.198 47.2q.031.046.066.086a15.6 15.6 0 0 0-2.128 1.992c-4.39 4.968-5.29 11.786-2.348 17.796 2.79 5.7 8.254 9.124 14.432 9.124q.532 0 1.07-.034c6.498-.296 11.938-4.364 14.202-10.624 2.29-6.334.634-13.07-4.322-17.578-1.972-1.794-4.446-3.076-7.01-3.708l13.156-19.702a1 1 0 0 0-.276-1.386zM63.614 64.86c-1.984 5.49-6.748 9.056-12.428 9.308h-.02c-5.788.368-10.992-2.688-13.58-7.972-2.578-5.268-1.792-11.242 2.05-15.592 2.458-2.782 6.034-4.508 9.808-4.738q.019.001.038-.004.532-.051 1.078-.052c3.24 0 6.774 1.364 9.266 3.632 4.346 3.952 5.796 9.86 3.788 15.418"/><path fill="#0b301a" d="M48.094 49.722a10.55 10.55 0 0 0-5.968 3.658 1 1 0 0 0 1.552 1.26 8.4 8.4 0 0 1 4.834-2.96c4.594-.984 9.132 1.954 10.114 6.546a8.46 8.46 0 0 1-1.18 6.41 8.47 8.47 0 0 1-5.37 3.7 8.47 8.47 0 0 1-6.414-1.178 8.46 8.46 0 0 1-3.7-5.366 8.5 8.5 0 0 1-.07-3.208 1.002 1.002 0 0 0-1.565-.984 1 1 0 0 0-.407.648 10.5 10.5 0 0 0 .086 3.962c.588 2.746 2.21 5.1 4.57 6.628a10.45 10.45 0 0 0 7.918 1.456 10.46 10.46 0 0 0 6.63-4.568 10.44 10.44 0 0 0 1.458-7.916c-1.212-5.67-6.816-9.296-12.488-8.084z"/></svg>
